X: 1
T:Loch Lomond  "CYMRU"
M:C
L:1/8
Q:80
C:Trad.
S:March
K:HP
{g}AB|
{g}{Gdc}d2{g}def2{g}f2|
e/2d3/2{c}d3/2B/2A2{GAG}A2|  !
Bd2{g}de/2d3|
f/2a3/2B3A3|] |
{g}A/2B3/2{GdG}B3/2A/2f2{g}f/2a3/2|  !
gfe3/2d/2B2AB|
f/2a3/2B2A2f2|
-f2ed2-d3|]  !
